src/images/logo.svg

<svg viewBox="0 0 536 310" version="1.1" xmlns="http://www.w3.org/2000/svg" xmlns:xlink="http://www.w3.org/1999/xlink">
  <title>Parc Rives de Seine</title>
  <g>
    <path d="M220.276227,274.653844 C222.683525,271.245167 227.617582,264.549471 230.766453,260.620368 C216.86589,254.183758 198.892306,253.681355 198.892306,242.795217 C198.892306,237.480564 203.32597,233.812801 211.931832,233.812801 C219.133437,233.812801 226.474792,235.977863 236.083695,241.531325 L244.308627,227.756936 C234.077614,221.30005 223.305635,218.132436 211.931832,218.132436 C193.455601,218.132436 181.180188,228.640083 181.180188,243.676111 C181.180188,267.194406 205.61155,268.839042 220.276227,274.653844"></path>
    <path d="M0.291640396,1.78913238 L35.2087197,1.78913238 C47.9867794,1.78913238 57.4739646,7.099279 62.4080222,14.9394615 C58.2313165,16.9625891 52.918583,20.375772 48.7441313,24.0435356 C45.5839902,19.4903721 41.1548339,17.0887529 35.2087197,17.0887529 L17.749053,17.0887529 L17.749053,48.3210663 L35.2087197,48.3210663 C52.7923576,48.3210663 49.9365098,26.192827 72.9591066,26.192827 C88.5208854,26.192827 98.0080707,36.1845539 99.6535079,48.6995579 L138.237884,48.6995579 L138.237884,36.941537 C138.237884,25.0550993 132.039319,16.203353 119.008808,16.203353 C112.684018,16.203353 107.369031,19.1118805 102.437227,25.1812632 C98.2627753,21.3873358 93.7073937,18.2264806 88.5208854,15.9510253 C95.0981262,6.46845971 104.08041,0.525240884 119.008808,0.525240884 C141.150082,0.525240884 155.569071,13.2948255 155.569071,37.5723563 L155.569071,90.3020897 L138.237884,90.3020897 L138.237884,64.1275952 L99.9059585,64.1275952 L99.9059585,90.3020897 L82.4485459,90.3020897 L82.4485459,52.6196491 C82.4485459,45.5387027 78.6527702,41.3662837 72.8328813,41.3662837 C59.1712444,41.3662837 63.2938535,63.6206869 33.9419584,63.6206869 L17.749053,63.6206869 L17.749053,90.3020897 L0.291640396,90.3020897 L0.291640396,1.78913238 Z"></path>
    <path d="M264.567115,60.8405762 C263.050157,57.0466488 262.162071,50.9772661 262.162071,46.045611 C262.162071,19.4903721 281.391147,0.525240884 307.704618,0.525240884 C319.472875,0.525240884 329.464961,3.9384238 337.056513,9.12240656 L329.212511,22.6534802 C322.506791,18.4810612 315.677099,16.3295169 307.704618,16.3295169 C291.892642,16.3295169 280.000414,28.2159545 280.000414,46.045611 C280.000414,48.3210663 280.252865,50.4703577 280.76002,52.4934853 C276.078413,55.7827573 270.132299,58.8174486 264.567115,60.8405762 L264.567115,60.8405762 Z M192.327913,17.0887529 L192.327913,46.2979387 L211.052087,46.2979387 C221.046427,46.2979387 226.48764,39.4715729 226.48764,31.2506459 C226.48764,23.665044 220.793977,17.0887529 211.052087,17.0887529 L192.327913,17.0887529 Z M174.872754,1.78913238 L211.052087,1.78913238 C230.409641,1.78913238 244.071278,13.4232423 244.071278,31.5052265 C244.071278,44.2748112 237.113107,53.5050491 226.108964,57.5513042 L230.535867,63.1160314 C238.379869,72.9793415 245.083335,75.887869 255.582577,75.887869 C264.440889,75.887869 272.537342,73.3578331 285.060697,64.7584145 C292.397544,73.1055054 299.357968,75.7617052 308.464224,75.7617052 C316.434451,75.7617052 322.759241,73.6101608 330.984173,68.8069226 L338.699696,82.3357433 C330.729469,87.7720537 320.608903,91.5682341 308.464224,91.5682341 C298.598363,91.5682341 289.74005,89.0381982 282.405457,84.3588708 C272.916018,89.4166897 263.681283,91.5682341 255.077675,91.5682341 C238.253643,91.5682341 226.740091,86.0012539 216.367074,72.4746861 L208.018171,61.5975593 L192.327913,61.5975593 L192.327913,90.3020897 L174.872754,90.3020897 L174.872754,1.78913238 Z"></path>
    <path d="M399.217975,271.249222 L399.217975,307.920099 L382.393943,307.920099 L382.393943,255.697274 C388.844959,259.23662 395.803129,266.569895 399.217975,271.249222 L399.217975,271.249222 Z M358.104585,247.854838 L358.104585,307.920099 L340.897369,307.920099 L340.897369,250.25871 C346.210103,248.616327 352.408667,247.730927 358.104585,247.854838 L358.104585,247.854838 Z M457.286131,307.920099 L444.129395,307.920099 L429.453447,286.927334 C397.827243,241.785456 381.127182,233.821362 358.228556,233.821362 C352.408667,233.821362 346.210103,234.832926 340.897369,236.349145 L340.897369,220.418705 C346.336328,218.900233 353.422978,218.140997 359.621543,218.140997 C388.716479,218.140997 407.314428,229.015871 433.249223,265.812911 L440.459845,276.054713 L440.459845,219.407141 L457.286131,219.407141 L457.286131,307.920099 Z"></path>
    <polygon points="535.982208 292.619126 535.982208 307.921 474.244502 307.921 474.244502 219.408043 535.982208 219.408043 535.982208 234.70541 491.57569 234.70541 491.57569 255.698175 531.681531 255.698175 531.681531 270.995542 491.57569 270.995542 491.57569 292.619126"></polygon>
    <path d="M182.207122,160.039612 C188.405686,158.52114 194.09935,155.867193 199.412084,151.31403 L199.412084,199.112108 L182.207122,199.112108 L182.207122,160.039612 Z M82.4958804,110.599151 L118.044086,110.599151 C147.648432,110.599151 156.777227,132.601226 172.462978,132.601226 C178.916247,132.601226 182.457318,128.428807 182.457318,121.347861 L182.457318,110.599151 L199.157379,110.599151 L199.157379,121.474025 C199.157379,135.762081 189.417743,147.774683 172.462978,147.774683 C146.023281,147.774683 136.892231,125.898771 118.675213,125.898771 L99.953293,125.898771 L99.953293,155.107957 L118.548988,155.107957 C124.495102,155.107957 128.924258,153.337157 132.086653,149.164738 C136.008654,152.577921 140.561782,155.741029 146.002995,158.52114 C143.09305,162.188904 138.918599,164.845103 133.605865,166.61365 L140.056881,176.224633 C144.862459,183.431743 147.141277,184.950215 151.949109,184.950215 C153.973222,184.950215 155.87111,184.44556 157.514293,183.810235 L160.929139,198.100544 C157.895223,199.4906 153.592292,200.375999 149.291615,200.375999 C140.056881,200.375999 132.339104,196.584325 124.242651,183.684071 L115.893748,170.407578 L99.953293,170.407578 L99.953293,199.112108 L82.4958804,199.112108 L82.4958804,110.599151 Z"></path>
    <polygon points="263.945906 199.111657 250.158043 199.111657 214.607583 110.5987 233.203278 110.5987 257.240185 173.570235 281.153122 110.5987 299.494112 110.5987"></polygon>
    <path d="M389.577967,188.237459 L399.446082,174.83255 C409.945324,182.420404 417.789326,184.69586 426.012004,184.69586 C434.870317,184.69586 439.547416,181.156513 439.547416,174.83255 C439.547416,163.831512 420.44682,163.705348 406.656704,157.13131 C411.209831,152.199655 414.881636,147.141836 417.789326,143.095581 C431.705668,148.786472 457.261787,150.050363 457.261787,173.823239 C457.261787,189.753679 445.87446,200.376225 427.276512,200.376225 C415.384283,200.376225 401.596421,196.963042 389.577967,188.237459 L389.577967,188.237459 Z M332.143192,162.189129 L332.143192,183.81046 L376.423486,183.81046 L376.423486,199.112333 L314.68578,199.112333 L314.68578,110.599376 L375.156724,110.599376 L375.156724,125.898997 L332.143192,125.898997 L332.143192,146.889508 L361.999989,146.889508 C394.640504,146.889508 388.69439,109.335485 424.747497,109.335485 C435.625415,109.335485 446.253136,113.000995 455.868801,118.81805 L447.643869,132.727615 C438.156683,127.289052 431.324738,125.013597 424.368821,125.013597 C400.96304,125.013597 403.746759,162.189129 363.264496,162.189129 L332.143192,162.189129 Z"></path>
    <path d="M99.5015867,250.83208 L93.6523955,250.83208 L93.6523955,229.147667 L99.5015867,229.147667 C106.419185,229.147667 110.386267,233.529608 110.386267,240.081117 C110.386267,246.513221 106.419185,250.83208 99.5015867,250.83208 M98.7983313,219.21001 L82.3642454,219.21001 L82.3642454,260.758472 L98.7983313,260.758472 C113.165478,260.758472 121.917851,252.427152 121.917851,239.954953 C121.917851,227.500778 113.165478,219.21001 98.7983313,219.21001"></path>
    <polygon points="142.040872 244.581562 158.594421 244.581562 158.594421 234.943545 142.040872 234.943545 142.040872 229.038625 160.900287 229.038625 160.900287 219.211362 130.863169 219.211362 130.863169 260.759824 161.022005 260.759824 161.022005 251.004654 142.040872 251.004654"></polygon>
    <path d="M263.416435,255.697724 C234.066794,255.697724 237.988795,293.504076 213.446987,293.504076 C205.72921,293.504076 198.139913,291.100204 187.893121,283.643019 L178.025006,297.045675 C189.536305,305.390513 202.314364,309.184441 213.699437,309.184441 C247.349755,309.184441 249.373869,270.997345 262.151928,270.997345 L263.416435,270.997345 L263.416435,307.920549 L325.154141,307.920549 L325.154141,292.618676 L280.876102,292.618676 L280.876102,270.997345 L320.85121,270.997345 L320.85121,255.697724 L280.876102,255.697724 L280.876102,255.697724 L263.416435,255.697724 Z"></path>
    <polygon points="280.875651 243.52111 280.875651 234.70541 325.153691 234.70541 325.153691 219.408043 263.452049 219.408043 263.452049 243.52111"></polygon>
  </g>
</svg>

<svg viewBox="0 0 536 310" xmlns="http://www.w3.org/2000/svg">
  <path d="M220.276 274.654c2.408-3.41 7.342-10.105 10.49-14.034-13.9-6.436-31.874-6.94-31.874-17.825 0-5.314 4.434-8.982 13.04-8.982 7.2 0 14.543 2.165 24.152 7.718l8.225-13.77c-10.24-6.45-21.01-9.62-32.38-9.62-18.48 0-30.75 10.51-30.75 25.55 0 23.52 24.43 25.17 39.09 30.98M.29 1.79h34.92c12.777 0 22.264 5.31 27.198 13.15-4.177 2.023-9.49 5.436-13.664 9.104-3.16-4.554-7.59-6.955-13.535-6.955H17.75v31.23h17.46c17.582 0 14.727-22.13 37.75-22.13 15.56 0 25.048 9.99 26.694 22.5h38.584V36.94c0-11.887-6.2-20.74-19.23-20.74-6.324 0-11.64 2.91-16.57 8.98-4.175-3.795-8.73-6.956-13.917-9.23C95.1 6.467 104.08.524 119.01.524c22.14 0 36.56 12.77 36.56 37.047V90.3h-17.332V64.13H99.906v26.174H82.45V52.62c0-7.08-3.797-11.254-9.617-11.254-13.662 0-9.54 22.255-38.89 22.255H17.748v26.69H.29V1.79zm264.275 59.05c-1.517-3.793-2.405-9.863-2.405-14.794 0-26.556 19.23-45.52 45.543-45.52 11.768 0 21.76 3.412 29.352 8.596l-7.844 13.53c-6.7-4.17-13.53-6.322-21.5-6.322-15.81 0-27.7 11.886-27.7 29.716 0 2.275.26 4.424.76 6.447-4.68 3.29-10.62 6.324-16.19 8.348zm-72.24-43.75v29.208h18.725c9.994 0 15.436-6.826 15.436-15.047 0-7.58-5.695-14.16-15.437-14.16h-18.72zM174.87 1.79h36.18c19.358 0 33.02 11.633 33.02 29.715 0 12.77-6.95 22-17.96 26.046l4.43 5.57c7.845 9.87 14.55 12.77 25.05 12.77 8.856 0 16.952-2.53 29.476-11.13 7.338 8.35 14.298 11.01 23.404 11.01 7.97 0 14.295-2.15 22.52-6.95l7.716 13.53c-7.97 5.44-18.09 9.23-30.236 9.23-9.867 0-18.725-2.53-26.06-7.21-9.49 5.06-18.724 7.21-27.327 7.21-16.823 0-28.337-5.56-38.71-19.09l-8.35-10.87h-15.69v28.7H174.88V1.79zm224.35 269.46v36.67h-16.825v-52.223c6.45 3.54 13.41 10.873 16.824 15.552zm-41.114-23.395v60.065h-17.208v-57.66c5.313-1.644 11.512-2.53 17.208-2.405zm99.18 60.065H444.13l-14.677-20.993c-31.626-45.142-48.326-53.106-71.224-53.106-5.82 0-12.02 1.02-17.34 2.53v-15.93c5.44-1.52 12.52-2.28 18.72-2.28 29.09 0 47.69 10.88 73.62 47.68l7.21 10.24v-56.65h16.82v88.52zm78.697-15.3v15.3h-61.737v-88.51h61.737v15.297h-44.406V255.7h40.106v15.298h-40.106v21.623m-309.37-132.58c6.2-1.52 11.893-4.17 17.206-8.72v47.8h-17.205v-39.08zm-99.71-49.44h35.548c29.604 0 38.733 22 54.42 22 6.452 0 9.993-4.17 9.993-11.25V110.6h16.7v10.875c0 14.288-9.74 26.3-26.694 26.3-26.44 0-35.57-21.875-53.788-21.875H99.953v29.207h18.596c5.94 0 10.37-1.77 13.53-5.943 3.92 3.413 8.47 6.576 13.91 9.356-2.91 3.67-7.09 6.325-12.4 8.094l6.45 9.61c4.8 7.208 7.08 8.726 11.89 8.726 2.02 0 3.92-.504 5.56-1.14l3.415 14.29c-3.035 1.39-7.338 2.276-11.638 2.276-9.24 0-16.958-3.792-25.05-16.692l-8.35-13.276H99.95v28.704H82.496V110.6zm181.45 88.52H250.16l-35.55-88.51h18.594l24.037 62.97 23.92-62.97h18.34m90.09 77.64l9.87-13.4c10.5 7.59 18.35 9.87 26.57 9.87 8.86 0 13.538-3.54 13.538-9.863 0-11-19.1-11.13-32.89-17.702 4.553-4.93 8.225-9.984 11.13-14.03 13.91 5.69 39.47 6.954 39.47 30.727 0 15.93-11.39 26.55-29.986 26.55-11.893 0-25.68-3.41-37.7-12.14zm-57.44-26.05v21.62h44.28v15.3h-61.74V110.6h60.47v15.3h-43.01v20.99H362c32.64 0 26.694-37.555 62.747-37.555 10.878 0 21.506 3.666 31.122 9.483l-8.23 13.91c-9.49-5.44-16.32-7.714-23.28-7.714-23.41 0-20.63 37.175-61.11 37.175h-31.12zM99.51 250.84h-5.85v-21.69h5.85c6.915 0 10.882 4.38 10.882 10.933 0 6.433-3.963 10.75-10.88 10.75m-.704-31.62h-16.44v41.55H98.8c14.366 0 23.12-8.33 23.12-20.804 0-12.46-8.754-20.75-23.12-20.75m43.24 25.37h16.553v-9.64h-16.55v-5.91h18.86v-9.83h-30.036v41.55h30.16V251H142.04"/>
  <path d="M263.416 255.698c-29.35 0-25.427 37.806-49.97 37.806-7.717 0-15.306-2.404-25.553-9.86l-9.868 13.402c11.51 8.345 24.29 12.138 35.674 12.138 33.65 0 35.67-38.187 48.45-38.187h1.26v36.924h61.74v-15.3h-44.28V271h39.97v-15.3h-57.43zm17.46-12.178v-8.815h44.278v-15.297h-61.702v24.113"/>
</svg>
